svg/OSM-icons/amenity #7bffff °373737 !label=enamenities,deEinrichtungen/12031;amenity=clinic;!healthcare=clinic;!name=;feature_group=health;[addr];[contact];!label=enclinic,deÄrztehaus.svg

<svg xmlns="http://www.w3.org/2000/svg" viewBox="0 0 580 580" enable-background="new 0 0 580 580"><path fill="#111" stroke="#eee" stroke-width="3.408" d="m66.28 1.768c-41.34 0-64.57 21.371-64.57 65.04v450.12c0 40.844 20.894 62.23 62.19 62.23h452.02c41.31 0 62.23-20.316 62.23-62.23v-450.12c0-42.601-20.923-65.04-63.52-65.04-.003 0-448.49-.143-448.35 0z"/><g fill="#fff"><path d="m473.77 259.87h-153.64v-153.64h-60.26v153.64h-153.64v60.26h153.64v153.64h60.26v-153.64h153.64z"/><path d="m478.68 101.32c-50.4-50.4-117.41-78.15-188.68-78.15-71.27 0-138.28 27.755-188.68 78.15-50.4 50.4-78.15 117.41-78.15 188.68s27.755 138.28 78.15 188.68c50.4 50.4 117.4 78.15 188.68 78.15 71.27 0 138.28-27.754 188.68-78.15 50.4-50.4 78.15-117.4 78.15-188.68s-27.755-138.28-78.15-188.68m-188.68 432.04c-134.19 0-243.36-109.17-243.36-243.36s109.17-243.36 243.36-243.36c134.19 0 243.36 109.17 243.36 243.36s-109.17 243.36-243.36 243.36"/></g></svg>

<?xml version="1.0" encoding="utf-8"?>
<!-- Generator: Adobe Illustrator 15.0.0, SVG Export Plug-In . SVG Version: 6.00 Build 0)  -->
<!DOCTYPE svg PUBLIC "-//W3C//DTD SVG 1.1//EN" "http://www.w3.org/Graphics/SVG/1.1/DTD/svg11.dtd">
<svg version="1.1" xmlns="http://www.w3.org/2000/svg" xmlns:xlink="http://www.w3.org/1999/xlink" x="0px" y="0px" width="580px"
	 height="580px" viewBox="0 0 580 580" enable-background="new 0 0 580 580" xml:space="preserve">
<g id="Layer_2">
	<g id="g1327">
		<path id="path1329" fill="#111111" stroke="#EEEEEE" stroke-width="3.408" d="M66.275,1.768
			c-41.335,0-64.571,21.371-64.571,65.036v450.123c0,40.844,20.894,62.229,62.192,62.229H515.92
			c41.307,0,62.229-20.316,62.229-62.229V66.804c0-42.601-20.923-65.036-63.522-65.036C514.624,1.768,66.133,1.625,66.275,1.768z"/>
	</g>
</g>
<g id="svg2" inkscape:version="0.46" sodipodi:docname="waste_bin.svg" sodipodi:version="0.32" xmlns:dc="http://purl.org/dc/elements/1.1/" xmlns:cc="http://creativecommons.org/ns#" xmlns:sodipodi="http://sodipodi.sourceforge.net/DTD/sodipodi-0.dtd" xmlns:svg="http://www.w3.org/2000/svg" xmlns:rdf="http://www.w3.org/1999/02/22-rdf-syntax-ns#" xmlns:inkscape="http://www.inkscape.org/namespaces/inkscape" inkscape:output_extension="org.inkscape.output.svg.inkscape">
	<polygon fill="#FFFFFF" points="473.768,259.87 320.13,259.869 320.13,106.232 259.869,106.232 259.869,259.869 106.232,259.869 
		106.232,320.131 259.869,320.131 259.869,473.768 320.13,473.768 320.13,320.131 473.768,320.131 	"/>
	<g>
		<path fill="#FFFFFF" d="M478.677,101.323C428.278,50.926,361.272,23.171,290,23.171c-71.273,0-138.28,27.755-188.677,78.152
			C50.926,151.721,23.171,218.728,23.171,290s27.755,138.279,78.152,188.677C151.72,529.074,218.727,556.829,290,556.829
			c71.272,0,138.278-27.754,188.677-78.152c50.397-50.397,78.152-117.404,78.152-188.677S529.074,151.721,478.677,101.323z
			 M290,533.363C155.809,533.363,46.638,424.19,46.638,290S155.809,46.638,290,46.638c134.19,0,243.363,109.172,243.363,243.362
			S424.19,533.363,290,533.363z"/>
	</g>
</g>
</svg>
